X:1
T:Minuet
T:Minuet
T:J.S. Bach
C:J.S. Bach
%%score { ( 1 3 ) | 2 }
L:1/8
M:3/4
K:Bb
V:1 treble nm="Piano" snm="Pno."
V:3 treble 
V:2 bass 
V:1
"^Allegretto"!p! (!4!b2 a2) g2 | a2 d2 d2 | (!5!g2 G)ABc | d6 | (!3!e2 f)edc | !2!d2 edc!2!B | %6
 !3!c2 dcBc | A6 | (!4!b2 a2 g2 | a2) d2 d2 | (!5!g2 G)ABc | d6 | (!3!f2 gfed | !3!e2 fed)c | %14
 !2!d2 g2 !1!c2 | !4!B6 :: (!4!d2 !2!B)!1!cd=e | !1!f2 g2 a2 | !4!b2 gabg | a2 ga f2 | %20
 (FG)AB!1!cd | e2 d2 c2 |!>(! f2!>)! !2!B2 !1!A2 | B6 |!p! (G2 d)c d2 | (G2 !4!e)d e2 | %26
 (Gd)!2!^F!4!cG!3!B | A6 |!<(! (D!<)!=E)^F!1!GAB | c2 B2 A2 |!>(! (B/!>)!c/)d G2 ^F2 | G6 :| z6 |] %33
V:2
 !2!G,6 | F,6 | E,6 | D,2 DCB,A, | [G,B,]4 A,2 | B,4 !5!G,2 | !1!A,2 !3!^F,2 !2!G,2 | D,2 DCB,A, | %8
 G,6 | F,6 | E,6 | D,2 DC=B,A, | [=B,D]4 G,2 | !1!C2 !3!A,2 F,2 | !2!B,2 E,2 [F,A,]2 | B,2 B,,4 :: %16
 !2!B,6 | A,2 G,2 F,2 | !1!G,2 =E,2 C,2 | !2!F,4 z2 | (!1!A,2 G,2) F,2 | !1!G,2 F,2 E,2 | %22
 !4!D,2 E,2 !1!F,2 | B,,2 D2 C2 | [=B,D]6 | C6 | (!3!!courtesy!_B,2 A,2) G,2 | D2 !1!A,G,^F,=E, | %28
 D,4 z2 | !2!E,2 D,2 C,2 | (B,,2 C,2) D,2 | G,2 G,,4 :| z6 |] %33
V:3
 x6 | x6 | x6 | x6 | x6 | x6 | x6 | x6 | x6 | x6 | x6 | x6 | x6 | x6 | x6 | [DF]6 :: x6 | x6 | x6 | %19
 x6 | x6 | x6 | x6 | x6 | x6 | x6 | x6 | x6 | x6 | x6 | x6 | x6 :| x6 |] %33

